packages/icons/web/circle_help_small.svg

<svg width="24" height="24" viewBox="0 0 24 24" fill="none" xmlns="http://www.w3.org/2000/svg">
<path fill-rule="evenodd" clip-rule="evenodd" d="M12 6C8.68629 6 6 8.68629 6 12C6 15.3137 8.68629 18 12 18C15.3137 18 18 15.3137 18 12C18 8.68629 15.3137 6 12 6ZM4 12C4 7.58172 7.58172 4 12 4C16.4183 4 20 7.58172 20 12C20 16.4183 16.4183 20 12 20C7.58172 20 4 16.4183 4 12Z" fill="#212933"/>
<path d="M10 9.7774C10.0001 9.4515 10.1009 9.13188 10.2915 8.85349C10.4822 8.57509 10.7552 8.34863 11.0809 8.19886C11.4065 8.04908 11.7722 7.98176 12.1379 8.00423C12.5037 8.02671 12.8555 8.13813 13.1549 8.32632C13.4542 8.5145 13.6896 8.77221 13.8353 9.07127C13.981 9.37034 14.0314 9.69925 13.981 10.0221C13.9306 10.3449 13.7814 10.6492 13.5496 10.9017C13.3178 11.1542 13.0123 11.3452 12.6667 11.4538C12.4716 11.5151 12.3028 11.6287 12.1834 11.7788C12.064 11.929 11.9999 12.1084 12 12.2923M12 15V15.5" stroke="#212933" stroke-width="2" stroke-linecap="round" stroke-linejoin="round"/>
</svg>

<svg width="24" height="24" fill="none" xmlns="http://www.w3.org/2000/svg">
    <path fill-rule="evenodd" clip-rule="evenodd" d="M12 6a6 6 0 100 12 6 6 0 000-12zm-8 6a8 8 0 1116 0 8 8 0 01-16 0z" fill="currentColor"/>
    <path d="M10 9.777c0-.325.1-.645.291-.924.191-.278.464-.504.79-.654a2.213 2.213 0 012.074.127c.3.188.535.446.68.745.146.3.196.628.146.951-.05.323-.2.627-.431.88a2.016 2.016 0 01-.883.552.997.997 0 00-.484.325.823.823 0 00-.183.513M12 15v.5" stroke="currentColor" stroke-width="2" stroke-linecap="round" stroke-linejoin="round"/>
</svg>
